assests/images/10.svg

<svg xmlns="http://www.w3.org/2000/svg" xmlns:xlink="http://www.w3.org/1999/xlink" width="1024" zoomAndPan="magnify" viewBox="0 0 768 767.999994" height="1024" preserveAspectRatio="xMidYMid meet" version="1.0"><defs><clipPath id="bea6486d4e"><path d="M 155.867188 486.304688 L 611.863281 486.304688 L 611.863281 520.21875 L 155.867188 520.21875 Z M 155.867188 486.304688 " clip-rule="nonzero"/></clipPath><clipPath id="85311f37a6"><path d="M 334 247.40625 L 405 247.40625 L 405 386 L 334 386 Z M 334 247.40625 " clip-rule="nonzero"/></clipPath></defs><path fill="#000000" d="M 505.566406 346.847656 C 503.769531 344.824219 500.671875 344.753906 498.785156 346.636719 L 384.8125 460.597656 C 384.804688 460.605469 384.789062 460.605469 384.777344 460.597656 L 273.289062 349.121094 L 286.789062 345.539062 C 290.335938 344.597656 290.671875 339.703125 287.292969 338.28125 L 241.796875 319.183594 C 238.621094 317.851562 235.433594 321.039062 236.765625 324.214844 L 255.871094 369.699219 C 257.289062 373.082031 262.1875 372.742188 263.128906 369.195312 L 266.707031 355.703125 L 381.503906 470.488281 C 382.414062 471.394531 383.605469 471.847656 384.796875 471.847656 C 385.988281 471.847656 387.179688 471.394531 388.085938 470.488281 L 505.238281 353.347656 C 507.003906 351.585938 507.21875 348.710938 505.566406 346.847656 " fill-opacity="1" fill-rule="nonzero"/><g clip-path="url(#bea6486d4e)"><path fill="#000000" d="M 607.640625 486.445312 L 160.089844 486.445312 C 157.757812 486.445312 155.867188 488.746094 155.867188 491.585938 C 155.867188 494.421875 157.757812 496.722656 160.089844 496.722656 L 168.539062 496.722656 L 186.355469 518.410156 C 186.945312 519.125 187.714844 519.484375 188.488281 519.484375 C 189.257812 519.484375 190.03125 519.125 190.621094 518.410156 C 191.796875 516.972656 191.796875 514.648438 190.621094 513.21875 L 177.070312 496.722656 L 192.667969 496.722656 L 210.484375 518.410156 C 211.070312 519.125 211.84375 519.484375 212.613281 519.484375 C 213.386719 519.484375 214.160156 519.125 214.746094 518.410156 C 215.925781 516.972656 215.925781 514.648438 214.746094 513.21875 L 201.195312 496.722656 L 219.207031 496.722656 L 237.019531 518.410156 C 237.609375 519.125 238.382812 519.484375 239.152344 519.484375 C 239.925781 519.484375 240.699219 519.125 241.285156 518.410156 C 242.464844 516.972656 242.464844 514.648438 241.285156 513.21875 L 227.738281 496.722656 L 245.644531 496.722656 L 263.460938 518.410156 C 264.050781 519.125 264.820312 519.484375 265.59375 519.484375 C 266.367188 519.484375 267.136719 519.125 267.726562 518.410156 C 268.902344 516.972656 268.902344 514.648438 267.726562 513.21875 L 254.175781 496.722656 L 269.773438 496.722656 L 287.589844 518.410156 C 288.175781 519.125 288.949219 519.484375 289.71875 519.484375 C 290.492188 519.484375 291.265625 519.125 291.851562 518.410156 C 293.03125 516.972656 293.03125 514.648438 291.851562 513.21875 L 278.300781 496.722656 L 296.3125 496.722656 L 314.128906 518.410156 C 314.714844 519.125 315.488281 519.484375 316.257812 519.484375 C 317.03125 519.484375 317.804688 519.125 318.390625 518.410156 C 319.570312 516.972656 319.570312 514.648438 318.390625 513.21875 L 304.84375 496.722656 L 322.652344 496.722656 L 340.464844 518.410156 C 341.054688 519.125 341.824219 519.484375 342.597656 519.484375 C 343.371094 519.484375 344.140625 519.125 344.730469 518.410156 C 345.910156 516.972656 345.910156 514.648438 344.730469 513.21875 L 331.179688 496.722656 L 346.777344 496.722656 L 364.59375 518.410156 C 365.179688 519.125 365.953125 519.484375 366.726562 519.484375 C 367.496094 519.484375 368.269531 519.125 368.855469 518.410156 C 370.035156 516.972656 370.035156 514.648438 368.855469 513.21875 L 355.308594 496.722656 L 373.320312 496.722656 L 391.132812 518.410156 C 391.722656 519.125 392.496094 519.484375 393.265625 519.484375 C 394.035156 519.484375 394.808594 519.125 395.398438 518.410156 C 396.574219 516.972656 396.574219 514.648438 395.398438 513.21875 L 381.847656 496.722656 L 399.757812 496.722656 L 417.570312 518.410156 C 418.160156 519.125 418.929688 519.484375 419.703125 519.484375 C 420.476562 519.484375 421.246094 519.125 421.835938 518.410156 C 423.015625 516.972656 423.015625 514.648438 421.835938 513.21875 L 408.285156 496.722656 L 423.882812 496.722656 L 441.699219 518.410156 C 442.285156 519.125 443.058594 519.484375 443.832031 519.484375 C 444.601562 519.484375 445.375 519.125 445.960938 518.410156 C 447.140625 516.972656 447.140625 514.648438 445.960938 513.21875 L 432.414062 496.722656 L 450.425781 496.722656 L 468.238281 518.410156 C 468.828125 519.125 469.597656 519.484375 470.371094 519.484375 C 471.140625 519.484375 471.914062 519.125 472.503906 518.410156 C 473.679688 516.972656 473.679688 514.648438 472.503906 513.21875 L 458.953125 496.722656 L 475.757812 496.722656 L 494.175781 519.144531 C 494.761719 519.859375 495.535156 520.21875 496.308594 520.21875 C 497.078125 520.21875 497.851562 519.859375 498.441406 519.144531 C 499.617188 517.707031 499.617188 515.382812 498.441406 513.953125 L 484.285156 496.722656 L 502.097656 496.722656 L 520.515625 519.144531 C 521.101562 519.859375 521.875 520.21875 522.648438 520.21875 C 523.417969 520.21875 524.191406 519.859375 524.777344 519.144531 C 525.957031 517.707031 525.957031 515.382812 524.777344 513.953125 L 510.625 496.722656 L 526.222656 496.722656 L 544.640625 519.144531 C 545.230469 519.859375 546 520.21875 546.773438 520.21875 C 547.542969 520.21875 548.316406 519.859375 548.90625 519.144531 C 550.082031 517.707031 550.082031 515.382812 548.90625 513.953125 L 534.753906 496.722656 L 552.761719 496.722656 L 571.179688 519.144531 C 571.769531 519.859375 572.542969 520.21875 573.3125 520.21875 C 574.085938 520.21875 574.855469 519.859375 575.445312 519.144531 C 576.621094 517.707031 576.621094 515.382812 575.445312 513.953125 L 561.292969 496.722656 L 579.203125 496.722656 L 597.621094 519.144531 C 598.207031 519.859375 598.980469 520.21875 599.753906 520.21875 C 600.523438 520.21875 601.296875 519.859375 601.882812 519.144531 C 603.0625 517.707031 603.0625 515.382812 601.882812 513.953125 L 587.730469 496.722656 L 607.640625 496.722656 C 609.976562 496.722656 611.867188 494.421875 611.867188 491.585938 C 611.867188 488.746094 609.976562 486.445312 607.640625 486.445312 " fill-opacity="1" fill-rule="nonzero"/></g><g clip-path="url(#85311f37a6)"><path fill="#000000" d="M 375.816406 247.578125 C 375.816406 247.578125 383.890625 261.007812 358.753906 293.921875 C 333.621094 326.839844 334.542969 347.253906 334.542969 347.253906 C 334.542969 347.253906 333.15625 364.722656 351.835938 375.207031 C 370.515625 385.6875 395.417969 388.628906 404.644531 382.011719 C 404.644531 382.011719 365.210938 366.929688 372.128906 339.160156 C 379.046875 311.394531 391.269531 283.441406 390.117188 269.832031 C 388.964844 256.222656 381.121094 250.15625 375.816406 247.578125 " fill-opacity="1" fill-rule="nonzero"/></g><path fill="#000000" d="M 398.648438 267.808594 C 398.648438 267.808594 404.875 287.300781 390.117188 314.335938 C 375.359375 341.367188 383.429688 355.527344 383.429688 355.527344 C 383.429688 355.527344 387.117188 366.5625 408.5625 374.835938 C 408.5625 374.835938 393.804688 358.101562 402.796875 326.65625 C 411.792969 295.210938 427.703125 283.441406 398.648438 267.808594 " fill-opacity="1" fill-rule="nonzero"/><path fill="#000000" d="M 422.167969 288.222656 C 422.167969 288.222656 424.707031 306.429688 413.867188 325.921875 C 403.03125 345.414062 408.792969 355.527344 408.792969 355.527344 C 408.792969 355.527344 413.40625 364.90625 420.554688 367.296875 C 420.554688 367.296875 414.84375 353.324219 422.425781 341.734375 C 430.011719 330.148438 442.464844 297.96875 422.167969 288.222656 " fill-opacity="1" fill-rule="nonzero"/></svg>

<svg xmlns="http://www.w3.org/2000/svg" width="1024" viewBox="0 0 768 768" height="1024" version="1.0"><defs><clipPath id="a"><path d="M155.867 486.305h455.996v33.914H155.867Zm0 0"/></clipPath><clipPath id="b"><path d="M334 247.406h71V386h-71Zm0 0"/></clipPath></defs><path d="M505.566 346.848a4.66 4.66 0 0 0-6.78-.211l-113.974 113.96c-.007.008-.023.008-.035 0L273.29 349.122l13.5-3.582c3.547-.941 3.883-5.836.504-7.258l-45.496-19.097c-3.176-1.332-6.363 1.855-5.031 5.03L255.87 369.7c1.418 3.383 6.316 3.043 7.258-.504l3.578-13.492 114.797 114.785a4.653 4.653 0 0 0 3.293 1.36 4.637 4.637 0 0 0 3.289-1.36l117.152-117.14c1.766-1.762 1.98-4.637.328-6.5"/><g clip-path="url(#a)"><path d="M607.64 486.445H160.09c-2.332 0-4.223 2.301-4.223 5.14 0 2.837 1.89 5.138 4.223 5.138h8.45l17.815 21.687c.59.715 1.36 1.074 2.133 1.074.77 0 1.543-.359 2.133-1.074 1.176-1.437 1.176-3.762 0-5.191l-13.55-16.496h15.597l17.816 21.687c.586.715 1.36 1.074 2.13 1.074.773 0 1.546-.359 2.132-1.074 1.18-1.437 1.18-3.762 0-5.191l-13.55-16.496h18.011l17.813 21.687c.59.715 1.363 1.074 2.132 1.074.774 0 1.547-.359 2.133-1.074 1.18-1.437 1.18-3.762 0-5.191l-13.547-16.496h17.907l17.816 21.687c.59.715 1.36 1.074 2.133 1.074.773 0 1.543-.359 2.133-1.074 1.175-1.437 1.175-3.762 0-5.191l-13.551-16.496h15.597l17.817 21.687c.586.715 1.36 1.074 2.129 1.074.773 0 1.547-.359 2.133-1.074 1.18-1.437 1.18-3.762 0-5.191L278.3 496.723h18.012l17.816 21.687c.586.715 1.36 1.074 2.129 1.074.773 0 1.547-.359 2.133-1.074 1.18-1.437 1.18-3.762 0-5.191l-13.547-16.496h17.808l17.813 21.687c.59.715 1.36 1.074 2.133 1.074.773 0 1.543-.359 2.132-1.074 1.18-1.437 1.18-3.762 0-5.191l-13.55-16.496h15.597l17.817 21.687c.586.715 1.36 1.074 2.133 1.074.77 0 1.543-.359 2.128-1.074 1.18-1.437 1.18-3.762 0-5.191l-13.546-16.496h18.011l17.813 21.687c.59.715 1.363 1.074 2.133 1.074s1.543-.359 2.132-1.074c1.176-1.437 1.176-3.762 0-5.191l-13.55-16.496h17.91l17.812 21.687c.59.715 1.36 1.074 2.133 1.074.774 0 1.543-.359 2.133-1.074 1.18-1.437 1.18-3.762 0-5.191l-13.55-16.496h15.597l17.816 21.687c.586.715 1.36 1.074 2.133 1.074.77 0 1.543-.359 2.129-1.074 1.18-1.437 1.18-3.762 0-5.191l-13.547-16.496h18.012l17.812 21.687c.59.715 1.36 1.074 2.133 1.074.77 0 1.543-.359 2.133-1.074 1.176-1.437 1.176-3.762 0-5.191l-13.55-16.496h16.804l18.418 22.422c.586.714 1.36 1.074 2.133 1.074.77 0 1.543-.36 2.132-1.074 1.176-1.438 1.176-3.762 0-5.192l-14.156-17.23h17.813l18.418 22.422c.586.714 1.359 1.074 2.132 1.074.77 0 1.543-.36 2.13-1.074 1.179-1.438 1.179-3.762 0-5.192l-14.153-17.23h15.598l18.418 22.422c.59.714 1.359 1.074 2.132 1.074.77 0 1.543-.36 2.133-1.074 1.176-1.438 1.176-3.762 0-5.192l-14.152-17.23h18.008l18.418 22.422c.59.714 1.363 1.074 2.133 1.074.773 0 1.542-.36 2.132-1.074 1.176-1.438 1.176-3.762 0-5.192l-14.152-17.23h17.91l18.418 22.422c.586.714 1.36 1.074 2.133 1.074.77 0 1.543-.36 2.129-1.074 1.18-1.438 1.18-3.762 0-5.192l-14.153-17.23h19.91c2.337 0 4.227-2.301 4.227-5.137 0-2.84-1.89-5.14-4.226-5.14"/></g><g clip-path="url(#b)"><path d="M375.816 247.578s8.075 13.43-17.062 46.344c-25.133 32.918-24.211 53.332-24.211 53.332s-1.387 17.469 17.293 27.953c18.68 10.48 43.582 13.422 52.809 6.805 0 0-39.434-15.082-32.516-42.852 6.918-27.765 19.14-55.719 17.988-69.328-1.152-13.61-8.996-19.676-14.3-22.254"/></g><path d="M398.648 267.809s6.227 19.492-8.53 46.527c-14.759 27.031-6.688 41.191-6.688 41.191s3.687 11.036 25.132 19.309c0 0-14.757-16.734-5.765-48.18 8.996-31.445 24.906-43.215-4.149-58.847"/><path d="M422.168 288.223s2.539 18.207-8.3 37.699c-10.837 19.492-5.075 29.605-5.075 29.605s4.613 9.38 11.762 11.77c0 0-5.711-13.973 1.87-25.563 7.587-11.586 20.04-43.765-.257-53.511"/></svg>
